!!!COM: Palestrina, Giovanni Perluigi da
!!!OPR: Hodie Christus Natus Est
!!!OTL: Agnus
**kern	**kern	**kern	**kern	**kern	**kern	**kern	**kern
*Ibass	*Itenor	*Itenor	*Icalto	*Ibass	*Icalto	*Icant	*Icant
!Bassus	!Tenor 2	!Tenor 1	!Altus	!Bassus	!Altus	!Cantus 2	!Cantus 1
*clefF4	*clefGv2	*clefGv2	*clefG2	*clefF4	*clefG2	*clefG2	*clefG2
*k[]	*k[]	*k[]	*k[]	*k[]	*k[]	*k[]	*k[]
*G:mix	*G:mix	*G:mix	*G:mix	*G:mix	*G:mix	*G:mix	*G:mix
*M4/2	*M4/2	*M4/2	*M4/2	*M4/2	*M4/2	*M4/2	*M4/2
=1	=1	=1	=1	=1	=1	=1	=1
0r	0r	0r	0r	0r	0d	0r	0r
=2	=2	=2	=2	=2	=2	=2	=2
0r	0r	0r	0r	0G	1d	0r	0r
.	.	.	.	.	[1g	.	.
=3	=3	=3	=3	=3	=3	=3	=3
0r	0r	0r	0r	1G	2g]	0r	0g
.	.	.	.	.	2d	.	.
.	.	.	.	[1c	2.e	.	.
.	.	.	.	.	4d	.	.
=4	=4	=4	=4	=4	=4	=4	=4
0r	0r	0r	0r	2c]	4e	0r	1g
.	.	.	.	.	4f	.	.
.	.	.	.	2G	2g	.	.
.	.	.	.	4A	2e	.	[1cc
.	.	.	.	4G	.	.	.
.	.	.	.	4A	[2f	.	.
.	.	.	.	4B	.	.	.
=5	=5	=5	=5	=5	=5	=5	=5
0r	0r	0r	0r	1c	2f]	0r	2cc]
.	.	.	.	.	2e	.	2g
.	.	.	.	2F	2.f	.	2.a
.	.	.	.	4D	.	.	.
.	.	.	.	4E	8e	.	4g
.	.	.	.	.	8d	.	.
=6	=6	=6	=6	=6	=6	=6	=6
0r	0r	0r	0r	4F	1c	1r	4a
.	.	.	.	4G	.	.	4b
.	.	.	.	2A	.	.	1cc
.	.	.	.	[1G	1g	[1dd	.
.	.	.	.	.	.	.	4b
.	.	.	.	.	.	.	4a
=7	=7	=7	=7	=7	=7	=7	=7
0r	0r	0r	0r	2G]	2r	1dd]	2b
.	.	.	.	4F#	1d	.	4a
.	.	.	.	4E	.	.	4g
.	.	.	.	2F#	.	1dd	2a
.	.	.	.	2G	2B	.	2b
=8	=8	=8	=8	=8	=8	=8	=8
0r	0r	0r	0r	2C	1c	1.gg	1ee
.	.	.	.	1c	.	.	.
.	.	.	.	.	1G	.	1dd
.	.	.	.	2B	.	2dd	.
=9	=9	=9	=9	=9	=9	=9	=9
0r	0r	0r	0r	1c	1.g	2.ee	2r
.	.	.	.	.	.	.	1cc
.	.	.	.	.	.	4dd	.
.	.	.	.	1C	.	4ee	.
.	.	.	.	.	.	4ff	.
.	.	.	.	.	2e	2gg	2ee
=10	=10	=10	=10	=10	=10	=10	=10
1r	0r	0r	0r	1D	4a	4ff	1dd
.	.	.	.	.	4g	4ee	.
.	.	.	.	.	4f	4dd	.
.	.	.	.	.	4e	4cc	.
[1G	.	.	.	1G	1d	4b	4dd
.	.	.	.	.	.	4cc	4cc
.	.	.	.	.	.	[2dd	4b
.	.	.	.	.	.	.	4a
=11	=11	=11	=11	=11	=11	=11	=11
1G]	0r	1r	1r	2.E	1e	4dd]	2g
.	.	.	.	.	.	4cc	.
.	.	.	.	.	.	1cc	2.gg
.	.	.	.	4F	.	.	.
1G	.	2r	[1g	1G	1d	.	.
.	.	.	.	.	.	.	4ff
.	.	2g	.	.	.	2b	2dd
=12	=12	=12	=12	=12	=12	=12	=12
1.c	2r	2e	1g]	1C	1c	1cc	1ee
.	2g	4c	.	.	.	.	.
.	.	4d	.	.	.	.	.
.	2e	4e	1g	1r	1r	1r	1r
.	.	4f	.	.	.	.	.
2G	2d	4g	.	.	.	.	.
.	.	4f	.	.	.	.	.
=13	=13	=13	=13	=13	=13	=13	=13
4A	2c	2e	1.cc	0r	0r	0r	0r
4G	.	.	.	.	.	.	.
4A	1f	2a	.	.	.	.	.
4B	.	.	.	.	.	.	.
1c	.	2g	.	.	.	.	.
.	2e	2c	2g	.	.	.	.
=14	=14	=14	=14	=14	=14	=14	=14
2.F	2f	2c	2.a	0r	0r	0r	0r
.	2d	1f	.	.	.	.	.
4E	.	.	4g	.	.	.	.
4F	1c	.	4a	.	.	.	.
4G	.	.	4b	.	.	.	.
2A	.	2c	[2cc	.	.	.	.
=15	=15	=15	=15	=15	=15	=15	=15
1G	2r	2.d	2cc]	0r	0r	0r	0r
.	2G	.	2b	.	.	.	.
.	.	4c	.	.	.	.	.
[1D	2.A	4d	4a	.	.	.	.
.	.	4e	4g	.	.	.	.
.	.	[2f	4f	.	.	.	.
.	4G	.	4e	.	.	.	.
=16	=16	=16	=16	=16	=16	=16	=16
2D]	4A	2f]	2d	0r	0r	0r	0r
.	4B	.	.	.	.	.	.
2E	1c	2e	2g	.	.	.	.
2F	.	1d	2a	.	.	.	.
2G	2B	.	4g	.	.	.	.
.	.	.	4f	.	.	.	.
=17	=17	=17	=17	=17	=17	=17	=17
1C	1c	1g	1e	2r	2r	2r	2r
.	.	.	.	2c	2g	2ee	2cc
1r	1r	1r	1r	1c	1g	1ee	1cc
=18	=18	=18	=18	=18	=18	=18	=18
2r	2r	2r	2r	1G	1g	1dd	1b
2G	2B	2d	2g	.	.	.	.
1G	1B	1d	1g	1r	1r	1r	1r
=19	=19	=19	=19	=19	=19	=19	=19
1C	1c	1e	1g	2r	2r	2r	2r
.	.	.	.	2c	2g	2cc	2ee
1r	1r	1r	1r	2G	2g	2b	2dd
.	.	.	.	2B	2g	2dd	2b
=20	=20	=20	=20	=20	=20	=20	=20
1r	1r	1r	2r	1c	1g	1cc	1ee
.	.	.	2g	.	.	.	.
2r	2r	2r	2g	1G	1g	1b	1dd
2G	2B	2d	4d	.	.	.	.
.	.	.	4e	.	.	.	.
=21	=21	=21	=21	=21	=21	=21	=21
2D	2A	2d	4f	0r	0r	0r	0r
.	.	.	4g	.	.	.	.
2F	2A	2c	1a	.	.	.	.
1G	1d	1B	.	.	.	.	.
.	.	.	[2g	.	.	.	.
=22	=22	=22	=22	=22	=22	=22	=22
1D	1d	1A	2g]	2r	2r	2r	2r
.	.	.	2f#	2d	2a	2a	2dd
1r	1r	1r	1r	1d	1f#	1a	1dd
=23	=23	=23	=23	=23	=23	=23	=23
0r	0r	0r	0r	[0G	0g	2dd	1.b
.	.	.	.	.	.	2dd	.
.	.	.	.	.	.	2g	.
.	.	.	.	.	.	2b	2dd
=24	=24	=24	=24	=24	=24	=24	=24
0r	0r	0r	0r	1G]	2r	2.dd	2g
.	.	.	.	.	2g	.	2b
.	.	.	.	.	.	4cc	.
.	.	.	.	1r	2d	2b	2.dd
.	.	.	.	.	2f	[2a	.
.	.	.	.	.	.	.	4cc
=25	=25	=25	=25	=25	=25	=25	=25
0r	0r	0r	0r	0r	1g	4a]	2b
.	.	.	.	.	.	4g	.
.	.	.	.	.	.	1g	4a
.	.	.	.	.	.	.	4g
.	.	.	.	.	1d	.	1a
.	.	.	.	.	.	2f#	.
=26	=26	=26	=26	=26	=26	=26	=26
2r	2r	2r	2r	0r	1G	1g	1b
2G	2d	2B	2g	.	.	.	.
1G	1d	1B	1g	.	1r	1r	1r
=27	=27	=27	=27	=27	=27	=27	=27
1C	1g	1c	1e	2r	2r	2r	2r
.	.	.	.	2c	2g	2ee	2cc
2r	2r	2r	2r	2G	2g	2dd	2b
2G	2g	2G	2d	2B	2g	2b	2dd
=28	=28	=28	=28	=28	=28	=28	=28
2C	2e	2.G	2g	1c	1g	1ee	1cc
2C	2c	.	2g	.	.	.	.
.	.	4A	.	.	.	.	.
1G	1d	1B	[1g	1G	1g	1dd	1b
=29	=29	=29	=29	=29	=29	=29	=29
1D	1d	1A	2g]	1r	1r	1r	1r
.	.	.	2f#	.	.	.	.
1r	1r	1r	1r	[1A	[1a	[1cc#	[1ee
=30	=30	=30	=30	=30	=30	=30	=30
0r	0r	0r	0r	2A]	1a]	2cc#]	2ee]
.	.	.	.	2A	.	2cc#	2ee
.	.	.	.	1d	1a	1dd	2ff#
.	.	.	.	.	.	.	2ff#
=31	=31	=31	=31	=31	=31	=31	=31
0r	0r	0r	0r	0G	1b	1dd	2.gg
.	.	.	.	.	.	.	4ff
.	.	.	.	.	1b	2.gg	2ee
.	.	.	.	.	.	.	2dd
.	.	.	.	.	.	4ff	.
=32	=32	=32	=32	=32	=32	=32	=32
0r	0r	0r	0r	0c	2.cc	2ee	2cc
.	.	.	.	.	.	2dd	2dd
.	.	.	.	.	4b	.	.
.	.	.	.	.	2a	2cc	1ee
.	.	.	.	.	2g	2b	.
=33	=33	=33	=33	=33	=33	=33	=33
1r	1r	0r	1r	[0d	2f#	2a	[0dd
.	.	.	.	.	1g	2g	.
[1D	[1d	.	2r	.	.	[1a	.
.	.	.	[2a	.	4f#	.	.
.	.	.	.	.	4e	.	.
=34	=34	=34	=34	=34	=34	=34	=34
2D]	2d]	2r	2a]	1d]	1f#	1a]	1dd]
2D	2d	1d	2a	.	.	.	.
1G	2B	.	2b	1r	1r	1r	1r
.	2G	2d	2b	.	.	.	.
=35	=35	=35	=35	=35	=35	=35	=35
1C	1r	2e	2.cc	0r	0r	0r	0r
.	.	2e	.	.	.	.	.
.	.	.	4b	.	.	.	.
[1F	[1a	[1f	2a	.	.	.	.
.	.	.	2g	.	.	.	.
=36	=36	=36	=36	=36	=36	=36	=36
0F]	2a]	2f]	2f	0r	0r	0r	0r
.	2g	2e	2g	.	.	.	.
.	2f	2d	1a	.	.	.	.
.	2e	2c	.	.	.	.	.
=37	=37	=37	=37	=37	=37	=37	=37
[0G	2d	2B	[0g	0r	0r	0r	0r
.	1c	2e	.	.	.	.	.
.	.	[1d	.	.	.	.	.
.	4B	.	.	.	.	.	.
.	4A	.	.	.	.	.	.
=38	=38	=38	=38	=38	=38	=38	=38
1G]	1B	1d]	1g]	1.G	1.g	1.dd	2r
.	.	.	.	.	.	.	1b
1r	1r	1r	1r	.	.	.	.
.	.	.	.	2G	2g	2dd	2b
=39	=39	=39	=39	=39	=39	=39	=39
1.C	1c	1e	1.g	1c	1g	0ee	0cc
.	1e	2c	.	[1c	1g	.	.
2C	.	[2G	2g	.	.	.	.
=40	=40	=40	=40	=40	=40	=40	=40
1G	1d	4G]	1g	2c]	[0g	2.gg	1dd
.	.	4A	.	.	.	.	.
.	.	4B	.	4B	.	.	.
.	.	4c	.	4A	.	8ff	.
.	.	.	.	.	.	8ee	.
1G	2d	2d	1g	1B	.	1dd	2.gg
.	[2g	2d	.	.	.	.	.
.	.	.	.	.	.	.	4ff
=41	=41	=41	=41	=41	=41	=41	=41
0C	4g]	1c	0g	0c	0g]	0ee	4ee
.	4f	.	.	.	.	.	4dd
.	4e	.	.	.	.	.	4cc
.	4d	.	.	.	.	.	4b
.	1c	2.G	.	.	.	.	1cc
.	.	4A	.	.	.	.	.
=42	=42	=42	=42	=42	=42	=42	=42
0G	0d	0B	0g	0G	0g	0dd	0b
==	==	==	==	==	==	==	==
*-	*-	*-	*-	*-	*-	*-	*-
!!!CDT: 1525/^1526/-1594/2/2
!!!OCY: Italia
!!!AGN: Mass (Parody)
!!!AST: renaissance, vocal
!!!ASW: Motet 1575 (Palestrina)
!!!PWK: Masses, Book 8vce
!!!RNB: Cadence finals: C,D
!!!YOR: Le Opere Complete, v. 30, p. 59
!!!YOO: Rome, Italy: Fratelli Scalera
!!!END: 1992//
!!!EED: John Miller
!!!YEC: Copyright 2000, John Miller
!!!YEN: United States of America
!!!YEM: Rights to all derivative electronic formats reserved.
!!!YEM: Refer to licensing agreement for further details.
!!!YEM: This file must be accompanied by the licensing agreement.
!!!YEM: A copy of the licensing agreement may be found at http://www.music-cog.ohio-state.edu/HumdrumDatabases/Palestrina/license.txt
!!!EMD: converted to Humdrum by Bret Aarden
